assets/svg/setting.svg

<?xml version="1.0" ?><!DOCTYPE svg  PUBLIC '-//W3C//DTD SVG 1.1//EN'  'http://www.w3.org/Graphics/SVG/1.1/DTD/svg11.dtd'><svg enable-background="new 0 0 48 48" height="48px" version="1.1" viewBox="0 0 48 48" width="48px" x="0px" xml:space="preserve" xmlns="http://www.w3.org/2000/svg" xmlns:xlink="http://www.w3.org/1999/xlink" y="0px"><g id="Expanded"><g><g><path d="M26,48h-4c-1.654,0-3-1.346-3-3v-3.724c-1.28-0.37-2.512-0.881-3.681-1.527l-2.634,2.635     c-1.134,1.134-3.109,1.132-4.243,0l-2.829-2.828c-0.567-0.566-0.879-1.32-0.879-2.121s0.312-1.555,0.879-2.121l2.635-2.636     c-0.645-1.166-1.156-2.398-1.525-3.679H3c-1.654,0-3-1.346-3-3v-4c0-0.802,0.312-1.555,0.878-2.121     c0.567-0.566,1.32-0.879,2.122-0.879h3.724c0.37-1.278,0.88-2.511,1.526-3.679l-2.634-2.635c-1.17-1.17-1.17-3.072,0-4.242     l2.828-2.829c1.133-1.132,3.109-1.134,4.243,0l2.635,2.635C16.49,7.604,17.722,7.093,19,6.724V3c0-1.654,1.346-3,3-3h4     c1.654,0,3,1.346,3,3v3.724c1.28,0.37,2.512,0.881,3.678,1.525l2.635-2.635c1.134-1.132,3.109-1.134,4.243,0l2.829,2.828     c0.567,0.566,0.879,1.32,0.879,2.121s-0.312,1.555-0.879,2.121l-2.634,2.635c0.646,1.168,1.157,2.4,1.526,3.68H45     c1.654,0,3,1.346,3,3v4c0,0.802-0.312,1.555-0.878,2.121s-1.32,0.879-2.122,0.879h-3.724c-0.37,1.28-0.881,2.513-1.526,3.68     l2.634,2.635c1.17,1.17,1.17,3.072,0,4.242l-2.828,2.829c-1.134,1.133-3.109,1.133-4.243,0L32.68,39.75     c-1.168,0.646-2.401,1.156-3.679,1.526V45C29,46.654,27.655,48,26,48z M15.157,37.498c0.179,0,0.36,0.048,0.521,0.146     c1.416,0.866,2.949,1.502,4.557,1.891C20.684,39.644,21,40.045,21,40.507V45c0,0.552,0.449,1,1,1h4c0.551,0,1-0.448,1-1v-4.493     c0-0.462,0.316-0.863,0.765-0.972c1.606-0.389,3.139-1.023,4.556-1.89c0.396-0.241,0.902-0.18,1.229,0.146l3.178,3.179     c0.375,0.374,1.039,0.376,1.415,0l2.828-2.829c0.39-0.39,0.39-1.024,0-1.414l-3.179-3.179c-0.327-0.326-0.387-0.835-0.146-1.229     c0.865-1.414,1.5-2.947,1.889-4.556c0.108-0.449,0.51-0.766,0.972-0.766H45c0.267,0,0.519-0.104,0.708-0.293     C45.896,26.518,46,26.267,46,25.999v-4c0-0.552-0.449-1-1-1h-4.493c-0.462,0-0.864-0.316-0.972-0.766     c-0.388-1.607-1.023-3.14-1.889-4.556c-0.241-0.394-0.181-0.901,0.146-1.229l3.179-3.179c0.186-0.187,0.293-0.444,0.293-0.707     s-0.107-0.521-0.293-0.707l-2.829-2.828c-0.378-0.377-1.037-0.377-1.415,0l-3.179,3.179c-0.326,0.328-0.833,0.389-1.229,0.146     c-1.413-0.864-2.945-1.5-4.554-1.889C27.317,8.356,27,7.955,27,7.493V3c0-0.552-0.449-1-1-1h-4c-0.551,0-1,0.448-1,1v4.493     c0,0.462-0.316,0.863-0.765,0.972c-1.606,0.388-3.139,1.023-4.556,1.889c-0.395,0.241-0.902,0.181-1.228-0.146l-3.179-3.179     c-0.378-0.377-1.037-0.377-1.415,0L7.03,9.857c-0.39,0.39-0.39,1.024,0,1.414l3.179,3.179c0.327,0.326,0.387,0.835,0.146,1.229     c-0.866,1.416-1.501,2.949-1.889,4.555c-0.108,0.449-0.51,0.766-0.972,0.766H3c-0.267,0-0.519,0.104-0.708,0.293     C2.104,21.48,2,21.731,2,21.999v4c0,0.552,0.449,1,1,1h4.493c0.462,0,0.864,0.316,0.972,0.766     c0.389,1.608,1.024,3.141,1.889,4.555c0.241,0.394,0.181,0.901-0.146,1.229l-3.179,3.18c-0.186,0.187-0.293,0.444-0.293,0.707     s0.107,0.521,0.293,0.707l2.829,2.828c0.377,0.377,1.037,0.377,1.415,0l3.178-3.179C14.643,37.598,14.898,37.498,15.157,37.498z"/></g><g><path d="M24,34c-5.514,0-10-4.486-10-10s4.486-10,10-10s10,4.486,10,10S29.515,34,24,34z M24,16c-4.411,0-8,3.589-8,8     s3.589,8,8,8s8-3.589,8-8S28.412,16,24,16z"/></g></g></g></svg>

<svg width="48" height="48" viewBox="0 0 48 48" fill="none" xmlns="http://www.w3.org/2000/svg">
<path d="M26 48H22C20.346 48 19 46.654 19 45V41.276C17.72 40.906 16.488 40.395 15.319 39.749L12.685 42.384C11.551 43.518 9.576 43.516 8.442 42.384L5.613 39.556C5.046 38.99 4.734 38.236 4.734 37.435C4.734 36.634 5.046 35.88 5.613 35.314L8.248 32.678C7.603 31.512 7.092 30.28 6.723 28.999H3C1.346 28.999 0 27.653 0 25.999V21.999C0 21.197 0.312 20.444 0.878 19.878C1.445 19.312 2.198 18.999 3 18.999H6.724C7.094 17.721 7.604 16.488 8.25 15.32L5.616 12.685C4.446 11.515 4.446 9.613 5.616 8.443L8.444 5.614C9.577 4.482 11.553 4.48 12.687 5.614L15.322 8.249C16.49 7.604 17.722 7.093 19 6.724V3C19 1.346 20.346 0 22 0H26C27.654 0 29 1.346 29 3V6.724C30.28 7.094 31.512 7.605 32.678 8.249L35.313 5.614C36.447 4.482 38.422 4.48 39.556 5.614L42.385 8.442C42.952 9.008 43.264 9.762 43.264 10.563C43.264 11.364 42.952 12.118 42.385 12.684L39.751 15.319C40.397 16.487 40.908 17.719 41.277 18.999H45C46.654 18.999 48 20.345 48 21.999V25.999C48 26.801 47.688 27.554 47.122 28.12C46.556 28.686 45.802 28.999 45 28.999H41.276C40.906 30.279 40.395 31.512 39.75 32.679L42.384 35.314C43.554 36.484 43.554 38.386 42.384 39.556L39.556 42.385C38.422 43.518 36.447 43.518 35.313 42.385L32.68 39.75C31.512 40.396 30.279 40.906 29.001 41.276V45C29 46.654 27.655 48 26 48ZM15.157 37.498C15.336 37.498 15.517 37.546 15.678 37.644C17.094 38.51 18.627 39.146 20.235 39.535C20.684 39.644 21 40.045 21 40.507V45C21 45.552 21.449 46 22 46H26C26.551 46 27 45.552 27 45V40.507C27 40.045 27.316 39.644 27.765 39.535C29.371 39.146 30.904 38.512 32.321 37.645C32.717 37.404 33.223 37.465 33.55 37.791L36.728 40.97C37.103 41.344 37.767 41.346 38.143 40.97L40.971 38.141C41.361 37.751 41.361 37.117 40.971 36.727L37.792 33.548C37.465 33.222 37.405 32.713 37.646 32.319C38.511 30.905 39.146 29.372 39.535 27.763C39.643 27.314 40.045 26.997 40.507 26.997H45C45.267 26.997 45.519 26.893 45.708 26.704C45.896 26.518 46 26.267 46 25.999V21.999C46 21.447 45.551 20.999 45 20.999H40.507C40.045 20.999 39.643 20.683 39.535 20.233C39.147 18.626 38.512 17.093 37.646 15.677C37.405 15.283 37.465 14.776 37.792 14.448L40.971 11.269C41.157 11.082 41.264 10.825 41.264 10.562C41.264 10.299 41.157 10.041 40.971 9.855L38.142 7.027C37.764 6.65 37.105 6.65 36.727 7.027L33.548 10.206C33.222 10.534 32.715 10.595 32.319 10.352C30.906 9.488 29.374 8.852 27.765 8.463C27.317 8.356 27 7.955 27 7.493V3C27 2.448 26.551 2 26 2H22C21.449 2 21 2.448 21 3V7.493C21 7.955 20.684 8.356 20.235 8.465C18.629 8.853 17.096 9.488 15.679 10.354C15.284 10.595 14.777 10.535 14.451 10.208L11.272 7.029C10.894 6.652 10.235 6.652 9.857 7.029L7.03 9.857C6.64 10.247 6.64 10.881 7.03 11.271L10.209 14.45C10.536 14.776 10.596 15.285 10.355 15.679C9.489 17.095 8.854 18.628 8.466 20.234C8.358 20.683 7.956 21 7.494 21H3C2.733 21 2.481 21.104 2.292 21.293C2.104 21.48 2 21.731 2 21.999V25.999C2 26.551 2.449 26.999 3 26.999H7.493C7.955 26.999 8.357 27.315 8.465 27.765C8.854 29.373 9.489 30.906 10.354 32.32C10.595 32.714 10.535 33.221 10.208 33.549L7.029 36.729C6.843 36.916 6.736 37.173 6.736 37.436C6.736 37.699 6.843 37.957 7.029 38.143L9.858 40.971C10.235 41.348 10.895 41.348 11.273 40.971L14.451 37.792C14.643 37.598 14.898 37.498 15.157 37.498Z" fill="black"/>
<path d="M24 34C18.486 34 14 29.514 14 24C14 18.486 18.486 14 24 14C29.514 14 34 18.486 34 24C34 29.514 29.515 34 24 34ZM24 16C19.589 16 16 19.589 16 24C16 28.411 19.589 32 24 32C28.411 32 32 28.411 32 24C32 19.589 28.412 16 24 16Z" fill="black"/>
<rect x="0.5" y="0.5" width="47" height="47" stroke="black"/>
</svg>
